X: 7927
T: Concertina, The
R: reel
M: 4/4
K: Dmajor
|:A2FA BAFA|A2FA BAFA|B2cA B2cA|B2cA BAFA|
A2FA BAFA|A2FA BAFA|A2 Bc d3B|AFEF D4:|
|:Adcd Adcd|Adcd BAFA|B2cA B2cA|B2cA BAFA|
Adcd Adcd|AddA BAFA|A2 Bc d3B|AFEF D4:|

